X: 15776
T: Good Morning To Your Nightcap
R: reel
M: 4/4
K: Adorian
|:e4 d4|cBcd (3efe d2|efe^c dcdB|(3=cBA BG E2 D2|
ede^c dcdB|=cBcd (3efe d2|(3efg fa gedB|cABG E2 D2:|
|:EAAc BG G2|cBcd (3efe dA|EAAc BGGB|(3cBA BG E2 D2|
EAAc BGGB|cBcd (3efe d2|(3efg fa gedB|cABG E2 D2:|

